X:8
T:I Buried my Wife and Danced on her Grave
R:jig
M:6/8
L:1/8
K:D
DED F2G | AdB =cAF | G2A BAG | F2F GEA |
DED F2G | AdB =cAF | G2A BAG | AFD D2A ::
d2e fed | faf gfe | d2e fed | d=cA d=cA |
d2e fed | faf gfe | d2A BAG | AFD D2A :|
